!!!OTL: Wiederbegegnung am Brunnen (173b), S. 382
!!!id: T0350
**kern
*clefG2
*k[b-]
*F:
{4c
=1
4f
4f
4g
4cc
=2
8a
8a
8g
8a
4f}
=3
{4f
=4
8f
8f
8f
8f
4g
4cc
=5
4.a
8g
4f}
=6
{4cc
=7
4a
4cc
4cc
8dd
8cc
=8
8cc
8b-
8b-
8a
4b-}
=9
{4b-
=10
4g
4b-
4g
4a
=11
8a
8a
8a
8a
4g}
=12
{8c
8c
=13
4f
4f
4a
4g
=14
4g
4cc
4cc
8a
8f
=15
4g
4cc
4f}
==
*-
!!!minrhy: 8
!!!meters: 4/4 ]  ZZ[5
!!!cut: Wiederbegegnung am Brunnen (173b), S. 382
!!!reg: Luxemburg
!!!trd: Singendes Volk, Esch-Alzette, 1937 posth.
!!!rhy1: X_  X_X_X_X_  XXXXX_
!!!rhy2: X_  XXXXX_X_  X_.XX_
!!!key: T0350  08  F 4/4 ]  ZZ[5
!!!mod: SECHSTONSKALA DUR ?]  AMBITUS[9
!!!kad: 11421
!!!akz: 1231_1231_3554_2232_132521_
!!!fot: 'a__av_b__c__d__
!!!for: 'a__b__c__a__d__
!!!fok: '^a_^__Sd_\__Ma_
!! PHRAS[AUFTAKTIG]
!!!fkt: Tage-. W&auml;chter-, Fenstergang-, St&auml;ndchenlieder, Liebeslied
!!!bem: Rammeldingen, J.P. Gloden, 25.2.1934
!! THILL, Mathias:
!! PR[33] 2K[2] 2G[12] 3K[10] 3G[2] 4A[5] 4Ü[0] 5A[0] 6K[0] 6G[0]
!! 7K[0] 7G[0] 8A[0] MEHR[0] SI[31] ABS[42] SR[14] SP[17]
!! ST[8] 2k[5] 2g[19] 3k[12] 3g[0] 4d[0] 4ü[0] 5d[0] 6k[0] 6g[0]
!! 7k[0] 7g[0] 8d[0] mehr[0] si[36] dm[-5] sr[24] sp[12]
!! 1F[9] 2F[83] 3F[9] 4F[0] LF[0] 2P[0] 3P[0] 4P[0] TRI[0] DF[3] AB[46]
!! TF[0] U3K[0] U3[0] U4[0] U4Ü[0] U5[0] U6K[0] U6[0] U7K[0] U7[0]
!! N1[7] N2K[0] N2[19] N3K[0] N3[21] N4[12] N4Ü[0] N5[30] N6K[0] N6[12]
!!!n7k: 0] N7[0] O1[0] O2K[0] O2[0] O3K[0] O3[0] HÖ[0
!!!RNB: symbol: &auml;      = a umlaut  (UTF-8: Å„)
